client/public/assets/curriculum/cur-topic-styling.svg

<svg viewBox="0 0 60 60" fill="none" xmlns="http://www.w3.org/2000/svg">
  <circle cx="30" cy="30" r="30" fill="white" />
  <path
    d="M25 18.75C24.337 18.75 23.7011 19.0134 23.2322 19.4822C22.7634 19.9511 22.5 20.587 22.5 21.25V26.25C22.5 26.913 22.2366 27.5489 21.7678 28.0178C21.2989 28.4866 20.663 28.75 20 28.75H19.25C18.9739 28.75 18.75 28.9739 18.75 29.25V30.75C18.75 31.0261 18.9739 31.25 19.25 31.25H20C20.663 31.25 21.2989 31.5134 21.7678 31.9822C22.2366 32.4511 22.5 33.087 22.5 33.75V38.75C22.5 39.413 22.7634 40.0489 23.2322 40.5178C23.7011 40.9866 24.337 41.25 25 41.25H27C27.2761 41.25 27.5 41.0261 27.5 40.75V39.25C27.5 38.9739 27.2761 38.75 27 38.75H25.5C25.2239 38.75 25 38.5261 25 38.25V32.5C25 31.837 24.7366 31.2011 24.2678 30.7322C23.7989 30.2634 23.163 30 22.5 30C23.163 30 23.7989 29.7366 24.2678 29.2678C24.7366 28.7989 25 28.163 25 27.5V21.75C25 21.4739 25.2239 21.25 25.5 21.25H27C27.2761 21.25 27.5 21.0261 27.5 20.75V18.75M35 18.75C35.663 18.75 36.2989 19.0134 36.7678 19.4822C37.2366 19.9511 37.5 20.587 37.5 21.25V26.25C37.5 26.913 37.7634 27.5489 38.2322 28.0178C38.7011 28.4866 39.337 28.75 40 28.75H40.75C41.0261 28.75 41.25 28.9739 41.25 29.25V30.75C41.25 31.0261 41.0261 31.25 40.75 31.25H40C39.337 31.25 38.7011 31.5134 38.2322 31.9822C37.7634 32.4511 37.5 33.087 37.5 33.75V38.75C37.5 39.413 37.2366 40.0489 36.7678 40.5178C36.2989 40.9866 35.663 41.25 35 41.25H33C32.7239 41.25 32.5 41.0261 32.5 40.75V39.25C32.5 38.9739 32.7239 38.75 33 38.75H34.5C34.7761 38.75 35 38.5261 35 38.25V32.5C35 31.837 35.2634 31.2011 35.7322 30.7322C36.2011 30.2634 36.837 30 37.5 30C36.837 30 36.2011 29.7366 35.7322 29.2678C35.2634 28.7989 35 28.163 35 27.5V21.75C35 21.4739 34.7761 21.25 34.5 21.25H33C32.7239 21.25 32.5 21.0261 32.5 20.75V19.25C32.5 18.9739 32.7239 18.75 33 18.75H35Z"
    fill="#2C67BC" />
</svg>

<svg xmlns="http://www.w3.org/2000/svg" fill="none" viewBox="0 0 60 60">
  <circle cx="30" cy="30" r="30" fill="#fff" />
  <path fill="#2C67BC"
    d="M25 18.75a2.5 2.5 0 0 0-2.5 2.5v5a2.5 2.5 0 0 1-2.5 2.5h-.75a.5.5 0 0 0-.5.5v1.5a.5.5 0 0 0 .5.5H20a2.5 2.5 0 0 1 2.5 2.5v5a2.5 2.5 0 0 0 2.5 2.5h2a.5.5 0 0 0 .5-.5v-1.5a.5.5 0 0 0-.5-.5h-1.5a.5.5 0 0 1-.5-.5V32.5a2.5 2.5 0 0 0-2.5-2.5 2.5 2.5 0 0 0 2.5-2.5v-5.75a.5.5 0 0 1 .5-.5H27a.5.5 0 0 0 .5-.5v-2m7.5 0a2.5 2.5 0 0 1 2.5 2.5v5a2.5 2.5 0 0 0 2.5 2.5h.75a.5.5 0 0 1 .5.5v1.5a.5.5 0 0 1-.5.5H40a2.5 2.5 0 0 0-2.5 2.5v5a2.5 2.5 0 0 1-2.5 2.5h-2a.5.5 0 0 1-.5-.5v-1.5a.5.5 0 0 1 .5-.5h1.5a.5.5 0 0 0 .5-.5V32.5a2.5 2.5 0 0 1 2.5-2.5 2.5 2.5 0 0 1-2.5-2.5v-5.75a.5.5 0 0 0-.5-.5H33a.5.5 0 0 1-.5-.5v-1.5a.5.5 0 0 1 .5-.5z" />
</svg>
